X:333
%%etbk:tnset id:100,pos:4,rep:3x,ant:
%%etbk:wsite http://www.thesession.org/tunes/display/84
%%etbk:pldat 2016-06-21T15:33,2016-05-04T16:16,2016-03-11T15:58,2016-03-08T16:39,2016-03-07T18:19,2016-02-08T18:22,2015-11-04T16:41,2015-10-28T16:00,2015-10-26T18:47,2015-10-22T18:51,2015-10-08T18:41,2015-06-16T16:51,2015-03-13T18:11,2015-03-09T18:29,2015-03-04T16:38,2015-02-11T17:22,2014-11-05T18:50,2014-11-04T16:02,2014-11-02T13:53,2014-08-19T18:42,2014-06-24T18:39,2014-03-05T19:12,2014-03-01T17:22,2014-02-24T18:08,2013-10-29T15:47,2013-10-27T14:44,2013-10-17T19:21,2013-10-13T15:59,2013-10-08T16:32
T: Rakes Of Kildare, The
Z: Piano Box Version by Martin Fleischmann
H: Created 2013-02-19 /  Last Modified 2013-02-19
M: 6/8
L: 1/8
R: jig
K: Ador
|: "am"!1!E!3!A!1!A !1!A!2!G!1!A| !2!Bc!4!d !2!e2f | "G"!4!g!3!g!4!g !2!ege | !1!d!3!BA !1!G2!2!F | 
"am"!1!E!3!A!1!A !1!A!2!G!1!A| !2!Bc!4!d !2!e2f  | "em"!4!gfe !1!d!3!B!1!G | "am"!2!A3 A3:|
|: "am"!5!a!2!e!5!a !3!a!1!e!3!a | !3!aea !4!b2!3!a | "em"!4!g!3!g!4!g !2!ege | !1!d!3!B!2!A !1!G3 | 
|1 "am"!5!a!2!e!5!a !3!a!1!e!3!a | !3!aea !4!b2!3!a  | "em"!4!gfe !1!d!3!B!1!G | "am"!2!A3 !1!A3:|
|2 "am"!1!E!3!A!1!A !1!A!2!G!1!A| !2!Bc!4!d !2!e2f  | "em"!4!gfe !1!d!3!B!1!G | "am"!2!A3 A3||


